X: 1
T:Mrs Hamilton of Pithcaitlands  "CYMRU"
M:C|
L:1/8
Q:80
C:N. Gow/arr. H. Moore
S:Slow Air
K:HP
|: {g}e/2d/2|
{gcd}cd{g}ea|
{e}faec|  !
{Gdc}df{gfg}f/2e/2{g}d/2c/2|
{gcd}cB{g}Be/2d/2| |
{gcd}cd{g}ea|  !
{e}faec|
{g}de/2{g}f/2{g}ec|
{G}A2{GAG}A:|  !
{g}e/2d/2|
{gcd}ce{G}A{g}A/2e/2|
c{g}e{g}f/2e/2d/2c/2|  !
{Gdc}df{gfg}f/2e/2{g}d/2c/2|
{gcd}cB{g}Be/2d/2| |
{gcd}ce{G}A{g}A/2e/2|  !
c{g}e{g}f/2e/2d/2c/2|
{g}de/2{g}f/2{g}ec|
{G}A2{GAG}Ae/2d/2| |  !
{gcd}ce{G}A{g}A/2e/2|
c{g}e{g}f/2e/2d/2c/2|
{Gdc}df{gfg}f/2e/2{g}d/2c/2|  !
{gcd}cB{g}Be/2d/2| |
{gcd}cd{g}ea|
{e}faec|  !
{g}de/2{g}f/2{g}ec|
{G}A2{GAG}A|]
{g}e/2d/2|  !
c/2{g}A/2c/2{g}e/2{gfg}f/2e/2{g}d/2{e}c/2|
{ag}a/2{f}g/2a/2e/2{g}f/2e/2d/2{e}c/2|
{Gdc}df{gfg}f/2e/2{g}d/2c/2|  !
{gcd}cB{g}Be/2d/2| |
c/2{g}A/2c/2{g}e/2{gfg}f/2e/2{g}d/2{e}c/2|
{ag}a/2{f}g/2a/2e/2{g}f/2e/2d/2{e}c/2|  !
{g}de/2{g}f/2{g}ec|
{G}A2{GAG}Ae/2d/2| |
c/2{g}A/2c/2{g}e/2{gfg}f/2e/2{g}d/2{e}c/2|  !
{ag}a/2{f}g/2a/2e/2{g}f/2e/2d/2{e}c/2|
{Gdc}df{gfg}f/2e/2{g}d/2c/2|
{gcd}cB{g}Be/2d/2| |  !
{gcd}cd{g}ea|
{e}faec|
{g}de/2{g}f/2{g}ec|  !
{G}A2{GAG}A|]
